!!!!SEGMENT: pl-wtm--r-1050_kurpinski-karol-kazimierz--boze-izraela.krn
!!!cenid: 18xx:2171
!!!COM: Kurpiński, Karol Kazimierz
!!!COM-rismid: pe30018952
!!!CDT: 1785/03/06-1857/09/18
!!!CNT: Polish
!!!OTL: Boże Izraela
!!!PDT:
!!!AGN:
!!!SMS-siglum: PL-Wtm
!!!SMS-shelfmark: R 1050
!!!SMS-shelfwork: W
!!!SMS-variant:
!!!SMS-altvar:
!!!NIFC-rismid: 1001083897
!!!URL-scan: http://repozytorium.nifc.pl/skany/pl-wtm-nut--r1050
!!!ONB-nifc:
!!!AIN: 1 alto 3 soprn
!!!key:
**kern	**text	**kern	**text	**kern	**text	**kern	**text
*part4	*part4	*part3	*part3	*part2	*part2	*part1	*part1
*staff4	*staff4	*staff3	*staff3	*staff2	*staff2	*staff1	*staff1
*Ialto	*	*Isoprn	*	*Isoprn	*	*Isoprn	*
*I"Alto Imo et 2do	*	*I"Soprano 3tio.	*	*I"Soprano 2do	*	*I"Soprano 1mo	*
*I'A 1, 2	*	*I'S 3	*	*I'S 2	*	*I'S 1	*
*clefC3	*	*clefC1	*	*clefC1	*	*clefC1	*
*k[]	*	*k[]	*	*k[]	*	*k[]	*
*F:	*	*F:	*	*F:	*	*F:	*
*M4/4	*	*M4/4	*	*M4/4	*	*M4/4	*
*met(c)	*	*met(c)	*	*met(c)	*	*met(c)	*
=1	=1	=1	=1	=1	=1	=1	=1
*2\right	*	*2\right2\right	*	*2\right	*	*2\right	*
!	!	!	!	!	!	!LO:TX:t=P:problem=all\right&colon; global	!
*clefG2	*	*clefG2	*	*	*	*cue	*
*cue	*	*cue	*	*cue	*	*	*
1cc 1g 1e 1c;>	.	1cc 1g 1e 1c;>	.	1a 1e 1c 1A;>	.	1a 1e 1c 1A;>	.
*Xcue	*	*Xcue	*	*Xcue	*	*Xcue	*
=2	=2	=2	=2	=2	=2	=2	=2
!LO:TX:a:t=I	!	!LO:TX:a:t=2	!	!LO:TX:a:t=2	!	!LO:TX:a:t=2	!
!	!	!LO:N:vis=0	!	!LO:N:vis=0	!	!LO:N:vis=0	!
1r	.	0r	.	0r	.	0r	.
!LO:CL:ed	!	!	!	!	!	!	!
*clefC3	*	*	*	*	*	*	*
=3	=3	=3	=3	=3	=3	=3	=3
4c\	Bo-	.	.	.	.	.	.
4c\	-że	.	.	.	.	.	.
4.d\	Iz-	.	.	.	.	.	.
8e\	-ra-	.	.	.	.	.	.
!	!	!LO:CL:ed	!	!	!	!	!
*	*	*clefC1	*	*	*	*	*
=4	=4	=4	=4	=4	=4	=4	=4
2f\	-e-	4g\	Bo-	4g\	Bo-	4g\	Bo-
.	.	4g\	-że	4g\	-że	4g\	-że
2f\	-la	4.a\	Iz-	4.a\	Iz-	4.a\	Iz-
.	.	8b\	-ra-	8b\	-ra-	8b\	-ra-
=5	=5	=5	=5	=5	=5	=5	=5
*	*	*2\right	*	*	*	*	*
4e\	Stwor-	2cc\	-e-	2cc\	-e-	2cc\	-e-
8e\	-co	.	.	.	.	.	.
8e\	i	.	.	.	.	.	.
4e\	Pa-	2cc\	-la	2cc\	-la	2cc\	-la
8e\	-nie	.	.	.	.	.	.
8e\	nad	.	.	.	.	.	.
=6	=6	=6	=6	=6	=6	=6	=6
[>1c	Pa-	4cc\	Stwor-	4cc\	Stwor-	4cc\	Stwor-
.	.	8cc\	-co	8cc\	-co	8cc\	-co
.	.	8cc\	i	8cc\	i	8cc\	i
.	.	4a\	Pa-	4cc\	Pa-	4ff\	Pa-
.	.	8a\	-nie	8cc\	-nie	8ff\	-nie
.	.	8a\	nad	8cc\	nad	8ff\	nad
=7	=7	=7	=7	=7	=7	=7	=7
2c\]	-ny	2g\	Pa-	2cc\	Pa-	2ee\	Pa-
2r	.	4g\	-ny	4cc\	-ny	4ee\	-ny
.	.	4r	.	4r	.	4r	.
!	!	!	!	!LO:LB:g=original	!	!LO:LB:g=original	!
=8	=8	=8	=8	=8	=8	=8	=8
*^	*	*	*	*	*	*	*
2c/	2c\	Racz	2a\	Racz	2a\	Racz	2cc\	Racz
4.d/	4.B\	bło-	4.g\	bło-	4.b\	bło-	4.dd\	bło-
8d/	8B\	-go-	8g\	-go-	8b\	-go-	8dd\	-go-
*v	*v	*	*	*	*	*	*	*
!LO:LB:g=original	!	!	!	!	!	!	!
=9	=9	=9	=9	=9	=9	=9	=9
2e 2c\	-sła-	2c/	-sła-	2cc\	-sła-	2ee\	-sła-
2e 2c\	-wic	2c/	-wic	2cc\	-wic	2ee\	-wić
!	!	!LO:LB:g=original	!	!	!	!	!
=10	=10	=10	=10	=10	=10	=10	=10
2c 2A/	na-	2f/	na-	2a\	na-	2cc\	na-
2f 2A/	-sze	2d/	-sze	2a\	-sze	2ff\	-sze
=11	=11	=11	=11	=11	=11	=11	=11
2d 2B/	po-	2g\	po-	2b\	po-	2dd\	po-
2d 2B/	-la	2g\	-la	2b\	-la	2dd\	-la
=12	=12	=12	=12	=12	=12	=12	=12
!LO:TX:a:t=I	!	!LO:TX:a:t=2	!	!LO:TX:a:t=2	!	!LO:TX:a:t=2	!
!	!	!LO:N:vis=0	!	!LO:N:vis=0	!	!LO:N:vis=0	!
1r	.	0r	.	0r	.	0r	.
=13	=13	=13	=13	=13	=13	=13	=13
2c\	Niech	.	.	.	.	.	.
4.d\	nam	.	.	.	.	.	.
8e\	u-	.	.	.	.	.	.
=14	=14	=14	=14	=14	=14	=14	=14
2f\	-ro-	2g\	Niech	2g\	Niech	2g\	Niech
2f\	-dzay	4.a\	nam	4.a\	nam	4.a\	nam
.	.	8b\	u-	8b\	u-	8b\	u-
=15	=15	=15	=15	=15	=15	=15	=15
2e\	wy-	2cc\	-ro-	2cc\	-ro-	2cc\	-ro-
2e\	-da	2cc\	-dzay	2cc\	-dzay	2cc\	-dzay
=16	=16	=16	=16	=16	=16	=16	=16
1c	ro-	2cc\	wy-	2cc\	wy-	2cc\	wy-
.	.	2a\	-da	2cc\	-da	2ff\	-da
!	!	!	!	!	!	!LO:LB:g=original	!
=17	=17	=17	=17	=17	=17	=17	=17
2c\	-la	2g\	ro-	2cc\	ro-	2ee\	ro-
2r	.	4g\	-la	4cc\	-la	4ee\	-la
.	.	4r	.	4r	.	4r	.
!	!	!	!	!LO:LB:g=original	!	!	!
=18	=18	=18	=18	=18	=18	=18	=18
2d 2A/	ra-	2f/	Ra-	2a\	Ra-	2dd\	Ra-
2d 2A/	-tuy	2f/	-tuy	2a\	-tuy	2dd\	-tuy
!LO:LB:g=original	!	!	!	!	!	!	!
=19	=19	=19	=19	=19	=19	=19	=19
2e [<2G#X/	lud	2e/	lud	2g#X\	lud	2ee\	lud
2e 2G#/]	twoy	2e/	twoy	2g#\	twoy	2ee\	twoy
!	!	!LO:LB:g=original	!	!	!	!	!
=20	=20	=20	=20	=20	=20	=20	=20
2c 2A/	wy-	2a\	wy-	2b\	wy-	2cc\	wy-
2d 2B/	-bra-	2g\	-bra-	2b\	-bra-	2dd\	-bra-
=21	=21	=21	=21	=21	=21	=21	=21
[>1c	-ny	[>1cc	-ny	[>1cc	-ny	[>1cc	-ny
=22	=22	=22	=22	=22	=22	=22	=22
1c]	.	1cc]	.	1cc]	.	1cc]	.
==	==	==	==	==	==	==;>	==
*-	*-	*-	*-	*-	*-	*-	*-
!!!system-decoration: [(s1,s2,s3,s4)]
!!!RDF**kern: > = above
!!!RDF**kern: < = below
!!!EED: Antoni Szymański
!!!EEV: 2021-05-29
!!!ENC: Andrzej Gręziak
!!!END: 2021-05-15
